X:155a
T:Liza Jane
S:Jim Coon to CoMandoList TOW
R:reel
C:Old-Time
B:The Ruffwater Fakebook
M:2/4
L:1/16
Q:1/4=120
K:A
|: "A"c4 c3c| B2 A4 B2| c2e2  cBA2| "D"F6 A2|!
       "E7"B4 B3B| c2 B4 B2| c2B2 A2F2 | "A"A4- A4 :|!
| "A"a2f2 e2c2| fec2 A4| a2f2 e2c2| "F#m"[f4A4] [f4A4]|!
     "A"a2f2 e2c2| fec2 A4| "D"c2f2  "E7"ecB2| "A"A4- A4 :|
